packages/tokens/icons/contentCreation/size32Px.svg

<svg viewBox="0 0 32 32" fill="none" xmlns="http://www.w3.org/2000/svg" width="1em" height="1em"><path d="M26.8101 5.42708L18.5225 19.7816C18.4368 19.9299 18.3907 20.0978 18.3886 20.269L18.3661 22.0525L19.8994 21.1413C20.0466 21.0538 20.1689 20.93 20.2545 20.7816L28.5422 6.42709C28.8183 5.9488 28.6544 5.33721 28.1761 5.06106C27.6978 4.78492 27.0863 4.94879 26.8101 5.42708Z" stroke="currentColor" stroke-linejoin="round"/><path d="M26 15.5C26 15.2239 25.7761 15 25.5 15C25.2239 15 25 15.2239 25 15.5H26ZM23.125 8.80769C23.4011 8.80769 23.625 8.58383 23.625 8.30769C23.625 8.03155 23.4011 7.80769 23.125 7.80769V8.80769ZM21.3372 4.09435L20.9815 4.44576V4.44576L21.3372 4.09435ZM23.2443 6.73603C23.4384 6.93247 23.755 6.93438 23.9514 6.7403C24.1479 6.54622 24.1498 6.22964 23.9557 6.0332L23.2443 6.73603ZM23.5 28L8.5 28V29L23.5 29V28ZM7 26.5L7 5.5H6L6 26.5H7ZM8.5 4L19.9145 4V3L8.5 3V4ZM25 15.5V26.5H26V15.5H25ZM20.25 3.98077V6.30769H21.25V3.98077H20.25ZM22.75 8.80769H23.125V7.80769H22.75V8.80769ZM20.9815 4.44576L23.2443 6.73603L23.9557 6.0332L21.6929 3.74294L20.9815 4.44576ZM19.9145 4C20.3155 4 20.6997 4.16053 20.9815 4.44576L21.6929 3.74294C21.2232 3.26755 20.5828 3 19.9145 3V4ZM8.5 28C7.67157 28 7 27.3284 7 26.5H6C6 27.8807 7.11929 29 8.5 29V28ZM20.25 6.30769C20.25 7.6884 21.3693 8.80769 22.75 8.80769V7.80769C21.9216 7.80769 21.25 7.13612 21.25 6.30769H20.25ZM23.5 29C24.8807 29 26 27.8807 26 26.5H25C25 27.3284 24.3284 28 23.5 28V29ZM7 5.5C7 4.67157 7.67157 4 8.5 4V3C7.11929 3 6 4.11929 6 5.5H7Z" fill="currentColor"/><path d="M9.5 9.5L20.5 9.5" stroke="currentColor" stroke-linecap="round"/><path d="M9.5 12.5L19.5 12.5" stroke="currentColor" stroke-linecap="round"/><path d="M9.5 15.5L18 15.5" stroke="currentColor" stroke-linecap="round"/><path d="M9.5 18.5H17" stroke="currentColor" stroke-linecap="round"/><path d="M9.5 21.5H16" stroke="currentColor" stroke-linecap="round"/></svg>

<svg xmlns="http://www.w3.org/2000/svg" fill="none" viewBox="0 0 32 32" width="1em" height="1em"><path stroke="currentColor" stroke-linejoin="round" d="m26.81 5.427-8.287 14.355a.999.999 0 0 0-.134.487l-.023 1.784 1.533-.912a1 1 0 0 0 .355-.36l8.288-14.354a1 1 0 0 0-1.732-1Z"/><path fill="currentColor" d="M26 15.5a.5.5 0 0 0-1 0h1Zm-2.875-6.692a.5.5 0 0 0 0-1v1Zm-1.788-4.714-.355.352.355-.352Zm1.907 2.642a.5.5 0 0 0 .712-.703l-.712.703ZM23.5 28h-15v1h15v-1ZM7 26.5v-21H6v21h1ZM8.5 4h11.415V3H8.5v1ZM25 15.5v11h1v-11h-1ZM20.25 3.98v2.328h1V3.98h-1Zm2.5 4.828h.375v-1h-.375v1Zm-1.768-4.362 2.262 2.29.712-.703-2.263-2.29-.712.703ZM19.915 4a1.5 1.5 0 0 1 1.067.446l.71-.703A2.5 2.5 0 0 0 19.916 3v1ZM8.5 28A1.5 1.5 0 0 1 7 26.5H6A2.5 2.5 0 0 0 8.5 29v-1ZM20.25 6.308a2.5 2.5 0 0 0 2.5 2.5v-1a1.5 1.5 0 0 1-1.5-1.5h-1ZM23.5 29a2.5 2.5 0 0 0 2.5-2.5h-1a1.5 1.5 0 0 1-1.5 1.5v1ZM7 5.5A1.5 1.5 0 0 1 8.5 4V3A2.5 2.5 0 0 0 6 5.5h1Z"/><path stroke="currentColor" stroke-linecap="round" d="M9.5 9.5h11m-11 3h10m-10 3H18m-8.5 3H17m-7.5 3H16"/></svg>
